src/status/24/bluetooth-disabled-50-symbolic.svg

<?xml version="1.0" encoding="UTF-8" standalone="no"?>
<svg
   xmlns:dc="http://purl.org/dc/elements/1.1/"
   xmlns:cc="http://creativecommons.org/ns#"
   xmlns:rdf="http://www.w3.org/1999/02/22-rdf-syntax-ns#"
   xmlns:svg="http://www.w3.org/2000/svg"
   xmlns="http://www.w3.org/2000/svg"
   id="svg6"
   version="1.1"
   width="24"
   height="24">
  <metadata
     id="metadata12">
    <rdf:RDF>
      <cc:Work
         rdf:about="">
        <dc:format>image/svg+xml</dc:format>
        <dc:type
           rdf:resource="http://purl.org/dc/dcmitype/StillImage" />
        <dc:title></dc:title>
      </cc:Work>
    </rdf:RDF>
  </metadata>
  <defs
     id="defs10" />
  <path
     id="path2"
     d="M 6.3515625 4.7363281 L 5.4121094 5.6777344 L 12.183594 12.449219 L 10.882812 12.449219 L 10.494141 12.060547 L 8.3125 13.96875 C 8.002055 14.244997 7.9740835 14.720511 8.25 15.03125 C 8.523 15.34425 8.96825 15.398 9.28125 15.125 L 11.001953 13.625 L 11.001953 18.5 C 11.001953 18.777 11.223953 19 11.501953 19 C 11.783953 19 11.93825 18.9805 12.15625 18.8125 L 15.6875 15.65625 C 15.794435 15.55447 15.87029 15.424432 15.90625 15.28125 C 15.93454 15.19036 15.94515 15.094886 15.9375 15 C 15.9329 14.94692 15.92239 14.894523 15.90625 14.84375 C 15.87029 14.700568 15.794435 14.57053 15.6875 14.46875 L 12.875 11.998047 L 15.6875 9.53125 C 15.794435 9.4294699 15.87029 9.2994324 15.90625 9.15625 C 15.9523 9.0140522 15.9523 8.8609478 15.90625 8.71875 C 15.87029 8.5755676 15.794435 8.4455301 15.6875 8.34375 L 12.15625 5.1875 C 11.95725 5.0275 11.729 5 11.5 5 C 11.223 5 11 5.223 11 5.5 L 11 9.3847656 L 6.3515625 4.7363281 z M 12 7.0625 L 14.09375 8.9375 L 12.195312 10.580078 L 12 10.384766 L 12 7.0625 z M 12 13.25 L 14.09375 15.0625 L 12 16.9375 L 12 13.25 z "
     style="color:#bebebe;overflow:visible;fill:#363636;marker:none" />
</svg>

<svg xmlns="http://www.w3.org/2000/svg" width="24" height="24">
    <path d="m6.352 4.736-.94.942 6.772 6.771h-1.301l-.389-.388-2.181 1.908a.753.753 0 0 0-.063 1.062c.273.313.718.367 1.031.094l1.721-1.5V18.5c0 .277.222.5.5.5.282 0 .436-.02.654-.187l3.531-3.157a.78.78 0 0 0 .22-.375.745.745 0 0 0 0-.437.78.78 0 0 0-.22-.375l-2.812-2.471 2.813-2.467a.78.78 0 0 0 .218-.375.71.71 0 0 0 0-.437.78.78 0 0 0-.219-.375l-3.53-3.156c-.2-.16-.428-.188-.657-.188-.277 0-.5.223-.5.5v3.885L6.352 4.736zM12 7.063l2.094 1.875-1.899 1.642-.195-.195V7.063zm0 6.187 2.094 1.813L12 16.937V13.25z" style="color:#bebebe;overflow:visible;fill:#050505;opacity:.7;marker:none"/>
</svg>
